icons-rebrand/svg/audio-options-bold.svg

<svg width="32" height="32" viewBox="0 0 32 32" fill="none" xmlns="http://www.w3.org/2000/svg">
<path d="M29.707 2.29303C29.5195 2.10556 29.2652 2.00024 29 2.00024C28.7348 2.00024 28.4805 2.10556 28.293 2.29303L20 10.583V5.00003C20 4.73481 19.8946 4.48046 19.7071 4.29292C19.5196 4.10539 19.2652 4.00003 19 4.00003C18.7348 4.00003 18.4804 4.10539 18.2929 4.29292C18.1054 4.48046 18 4.73481 18 5.00003V13C17.9996 13.1315 18.0252 13.2617 18.0753 13.3832C18.1254 13.5047 18.1991 13.6151 18.292 13.708C18.385 13.801 18.4953 13.8746 18.6169 13.9247C18.7384 13.9748 18.8686 14.0004 19 14H27C27.2652 14 27.5196 13.8947 27.7071 13.7071C27.8946 13.5196 28 13.2652 28 13C28 12.7348 27.8946 12.4805 27.7071 12.2929C27.5196 12.1054 27.2652 12 27 12H21.412L29.707 3.70703C29.8001 3.61431 29.8739 3.50413 29.9243 3.3828C29.9747 3.26148 30.0006 3.1314 30.0006 3.00003C30.0006 2.86866 29.9747 2.73858 29.9243 2.61726C29.8739 2.49593 29.8001 2.38575 29.707 2.29303Z" fill="#0F0F0F"/>
<path d="M24.212 19.515C23.8851 19.1888 23.4971 18.9302 23.0703 18.754C22.6434 18.5777 22.186 18.4873 21.7242 18.4879C21.2624 18.4884 20.8053 18.58 20.3788 18.7572C19.9524 18.9345 19.5651 19.194 19.239 19.521C19.239 19.521 18.083 20.701 17.568 21.22C15.7861 21.1466 14.0972 20.4053 12.8369 19.1435C11.5766 17.8818 10.8373 16.1919 10.766 14.41C11.286 13.894 12.463 12.736 12.468 12.73C13.1268 12.0702 13.4969 11.1759 13.4969 10.2435C13.4969 9.31109 13.1268 8.41679 12.468 7.757L9.71398 4.999C9.04284 4.35766 8.15028 3.99976 7.22198 3.99976C6.29368 3.99976 5.40111 4.35766 4.72998 4.999L3.25798 6.473C1.24998 8.483 0.761979 15.503 8.61798 23.37C13.618 28.377 18.276 30 21.52 30C22.956 30.1 24.377 29.65 25.494 28.74L26.966 27.265C27.6273 26.6031 27.9988 25.7057 27.9988 24.77C27.9988 23.8343 27.6273 22.9369 26.966 22.275L24.212 19.515ZM25.552 25.848L24.079 27.286C22.799 28.563 16.943 28.836 10.034 21.916C3.12298 14.996 3.39398 9.17 4.67298 7.89L6.14498 6.447C6.28627 6.30532 6.45413 6.1929 6.63894 6.1162C6.82375 6.0395 7.02188 6.00002 7.22198 6.00002C7.42207 6.00002 7.6202 6.0395 7.80501 6.1162C7.98983 6.1929 8.15769 6.30532 8.29898 6.447L11.054 9.173C11.3365 9.45584 11.4957 9.83897 11.4969 10.2388C11.498 10.6386 11.3409 11.0226 11.06 11.307C11.06 11.307 9.55398 12.789 9.18898 13.155C7.88498 14.465 9.65698 18.791 11.424 20.561C12.5853 21.6921 14.0156 22.5087 15.58 22.934C16.491 23.184 18.123 23.497 18.821 22.799C19.185 22.435 20.661 20.933 20.661 20.932C20.9446 20.6494 21.3286 20.4907 21.729 20.4907C22.1293 20.4907 22.5134 20.6494 22.797 20.932L25.551 23.692C25.8365 23.9781 25.9969 24.3658 25.9969 24.77C25.9969 25.1742 25.8365 25.5619 25.551 25.848H25.552Z" fill="#0F0F0F"/>
</svg>

<svg width="32" height="32" viewBox="0 0 32 32" fill="none" xmlns="http://www.w3.org/2000/svg"><path d="M29.707 2.293a1 1 0 0 0-1.414 0L20 10.583V5a1 1 0 0 0-2 0v8a.997.997 0 0 0 1 1h8a1 1 0 0 0 0-2h-5.588l8.295-8.293a.998.998 0 0 0 0-1.414z" fill="#0F0F0F"/><path d="M24.212 19.515a3.516 3.516 0 0 0-4.973.006s-1.156 1.18-1.671 1.699a7.1 7.1 0 0 1-6.802-6.81c.52-.516 1.697-1.674 1.702-1.68a3.519 3.519 0 0 0 0-4.973L9.714 4.999a3.607 3.607 0 0 0-4.984 0L3.258 6.473C1.25 8.483.762 15.503 8.618 23.37c5 5.007 9.658 6.63 12.902 6.63 1.436.1 2.857-.35 3.974-1.26l1.472-1.475a3.53 3.53 0 0 0 0-4.99l-2.754-2.76zm1.34 6.333l-1.473 1.438c-1.28 1.277-7.136 1.55-14.045-5.37C3.123 14.996 3.394 9.17 4.673 7.89l1.472-1.443a1.521 1.521 0 0 1 2.154 0l2.755 2.726a1.514 1.514 0 0 1 .006 2.134s-1.506 1.482-1.871 1.848c-1.304 1.31.468 5.636 2.235 7.406a9.546 9.546 0 0 0 4.156 2.373c.911.25 2.543.563 3.241-.135.364-.364 1.84-1.866 1.84-1.867a1.513 1.513 0 0 1 2.136 0l2.754 2.76a1.526 1.526 0 0 1 0 2.156z" fill="#0F0F0F"/></svg>
